X: 3950
T: Blackbird, The
R: hornpipe
M: 4/4
K: Dmajor
|:AG|FEFA GFD2|defd dcAF|G3F GFDE|FGAF GBAG|
F3A GFD2|defd dcAG|Ad (3cBA GBAG|F2D2 D2:|
|:fg|agfa gfeg|fdec dcA2|agfa gfde|(3fed gf e2fg|
(3agf ge f3e|d2de fdec|dcAF GBAG|F2D2 D2:|

